X: 1384
T: Farewell To Iveleary
B: O'Neill's 1850 #1384
O: F.O'Neill
Z: Bob Safranek, rjs@gsp.org
M: C|
L: 1/8
K: G
c | B>G (3GGG Bcdc | BGBd eAAc | B>G (3GGG BcdB | dega bg g :| a | bgfg (eg)(dg) |
| cBcd eAA [gc] |[1 bgfg egdg | egfa bgga :|[2 BGGB cAAg | fdef g2 z |]
